X:55
T:An Tseanbhean Bhocht
T:The "Shan Van Vocht" Reel
R:reel
S:John Doherty
D:The Star of Donegal (Folktracks 075)
Z:Close but not fastidiously exact transcription; Doherty plays the tune
Z:through twice. Transcribed by Larry Sanger.
M:4/4
K:G
|:BG G/G/G AEGE|DEGA BAAc|BG G/G/G AEGE|DEGA BGGA:|
Bddg edgd|Bdgd eAAc|Bddg edgd|B/c/B Ac BGGc|
Bddg edgd|Bdgd eAAc|Bdef g/a/b ge|dBge dADc||
